kiosk-igrinskij/images/77337558c0b6697671e64e369a6256b7.svg

<svg fill="none" height="20" viewBox="0 0 14 20" width="14" xmlns="http://www.w3.org/2000/svg"><path d="m5 18.2h1.5c0-.5455-.29609-1.0479-.77325-1.3122zm4 .0692-.74958-1.2992c-.46434.2678-.75042.7632-.75042 1.2992zm-2-17.7692c-.72464 0-2.42177.103404-3.9315 1.43523-1.53667 1.35559-2.5685 3.70151-2.5685 7.50708h3c0-3.29059.88258-4.66582 1.55312-5.25735.69748-.61529 1.50035-.68496 1.94688-.68496zm-6.5 8.94231c0 3.76309.79711 6.22029 1.70012 7.78849.44964.7808.91594 1.324 1.29911 1.6873.19095.181.35965.3158.49316.4123.06672.0483.12457.0868.17192.1168.02368.015.04473.0278.06295.0386.00911.0054.01752.0103.02519.0147.00384.0022.00749.0042.01096.0062.00173.001.00342.0019.00506.0028.00082.0005.00202.0012.00243.0014.00118.0006.00235.0013.7291-1.3109s.7279-1.3116.72904-1.3109c.00036.0002.00149.0008.00222.0012.00145.0008.00287.0016.00424.0024.00274.0015.00531.003.0077.0044.00479.0027.00889.0051.01233.0071.00687.0041.01107.0067.01278.0078.0034.0022-.0032-.0019-.01852-.0129-.03055-.0221-.09622-.0725-.18652-.1581-.17933-.1701-.46303-.4857-.76339-1.0073-.59699-1.0367-1.29988-2.9584-1.29988-6.29139zm3 8.75769v1.7308h3v-1.7308zm3.5-14.7c.44653 0 1.2494.06967 1.94688.68496.67054.59153 1.55312 1.96676 1.55312 5.25735h3c0-3.80557-1.0318-6.15149-2.5685-7.50708-1.50973-1.331826-3.20686-1.43523-3.9315-1.43523zm3.5 5.94231c0 3.33239-.7027 5.27509-1.30412 6.33339-.3026.5325-.58928.8586-.77216 1.0362-.09201.0893-.15941.1427-.19164.1667-.01615.0121-.02357.0168-.02095.0151.00131-.0008.00513-.0033.01162-.0073.00324-.002.00716-.0044.01176-.0071.00231-.0014.00478-.0029.00743-.0044.00132-.0008.00269-.0016.00411-.0024.0007-.0004.0018-.0011.00215-.0013.0011-.0006.00222-.0012.7518 1.298.74958 1.2993.75072 1.2987.75187 1.298.0004-.0002.00156-.0009.00236-.0014.00159-.0009.00323-.0019.00492-.0029.00338-.0019.00694-.004.01069-.0063.00748-.0044.0157-.0094.02462-.0149.01785-.011.03851-.024.06179-.0393.04657-.0305.1036-.0699.16945-.119.1319-.0984.2988-.2356.4881-.4194.3796-.3687.8429-.9188 1.2903-1.706.8986-1.5812 1.6959-4.052 1.6959-7.81569zm-3 8.82689v1.7308h3v-1.7308z" fill="#f1e9dd"/></svg>

<svg width="14" height="20" viewBox="0 0 14 20" fill="none" xmlns="http://www.w3.org/2000/svg">
<path d="M5 18.2H6.5C6.5 17.6545 6.20391 17.1521 5.72675 16.8878L5 18.2ZM9 18.2692L8.25042 16.97C7.78608 17.2378 7.5 17.7332 7.5 18.2692H9ZM7 0.5C6.27536 0.5 4.57823 0.603404 3.0685 1.93523C1.53183 3.29082 0.5 5.63674 0.5 9.44231H3.5C3.5 6.15172 4.38258 4.77649 5.05312 4.18496C5.7506 3.56967 6.55347 3.5 7 3.5V0.5ZM0.5 9.44231C0.5 13.2054 1.29711 15.6626 2.20012 17.2308C2.64976 18.0116 3.11606 18.5548 3.49923 18.9181C3.69018 19.0991 3.85888 19.2339 3.99239 19.3304C4.05911 19.3787 4.11696 19.4172 4.16431 19.4472C4.18799 19.4622 4.20904 19.475 4.22726 19.4858C4.23637 19.4912 4.24478 19.4961 4.25245 19.5005C4.25629 19.5027 4.25994 19.5047 4.26341 19.5067C4.26514 19.5077 4.26683 19.5086 4.26847 19.5095C4.26929 19.51 4.27049 19.5107 4.2709 19.5109C4.27208 19.5115 4.27325 19.5122 5 18.2C5.72675 16.8878 5.7279 16.8884 5.72904 16.8891C5.7294 16.8893 5.73053 16.8899 5.73126 16.8903C5.73271 16.8911 5.73413 16.8919 5.7355 16.8927C5.73824 16.8942 5.74081 16.8957 5.7432 16.8971C5.74799 16.8998 5.75209 16.9022 5.75553 16.9042C5.7624 16.9083 5.7666 16.9109 5.76831 16.912C5.77171 16.9142 5.76511 16.9101 5.74979 16.8991C5.71924 16.877 5.65357 16.8266 5.56327 16.741C5.38394 16.5709 5.10024 16.2553 4.79988 15.7337C4.20289 14.697 3.5 12.7753 3.5 9.44231H0.5ZM3.5 18.2V19.9308H6.5V18.2H3.5ZM7 3.5C7.44653 3.5 8.2494 3.56967 8.94688 4.18496C9.61742 4.77649 10.5 6.15172 10.5 9.44231H13.5C13.5 5.63674 12.4682 3.29082 10.9315 1.93523C9.42177 0.603404 7.72464 0.5 7 0.5V3.5ZM10.5 9.44231C10.5 12.7747 9.7973 14.7174 9.19588 15.7757C8.89328 16.3082 8.6066 16.6343 8.42372 16.8119C8.33171 16.9012 8.26431 16.9546 8.23208 16.9786C8.21593 16.9907 8.20851 16.9954 8.21113 16.9937C8.21244 16.9929 8.21626 16.9904 8.22275 16.9864C8.22599 16.9844 8.22991 16.982 8.23451 16.9793C8.23682 16.9779 8.23929 16.9764 8.24194 16.9749C8.24326 16.9741 8.24463 16.9733 8.24605 16.9725C8.24675 16.9721 8.24785 16.9714 8.2482 16.9712C8.2493 16.9706 8.25042 16.97 9 18.2692C9.74958 19.5685 9.75072 19.5679 9.75187 19.5672C9.75227 19.567 9.75343 19.5663 9.75423 19.5658C9.75582 19.5649 9.75746 19.5639 9.75915 19.5629C9.76253 19.561 9.76609 19.5589 9.76984 19.5566C9.77732 19.5522 9.78554 19.5472 9.79446 19.5417C9.81231 19.5307 9.83297 19.5177 9.85625 19.5024C9.90282 19.4719 9.95985 19.4325 10.0257 19.3834C10.1576 19.285 10.3245 19.1478 10.5138 18.964C10.8934 18.5953 11.3567 18.0452 11.8041 17.258C12.7027 15.6768 13.5 13.206 13.5 9.44231H10.5ZM7.5 18.2692V20H10.5V18.2692H7.5Z" fill="#F1E9DD"/>
</svg>
